src/Assets/Icons/ResidentBlackIcon.svg

<svg width="40" height="46" viewBox="0 0 40 46" fill="none" xmlns="http://www.w3.org/2000/svg">
<path d="M4.36664 36.8049C2.89307 35.9512 1.50261 35.1452 0.0204208 34.286C0.0204208 33.9142 0.0204288 33.5309 0.0204208 33.1475C0.0203569 26.2669 0.0368299 19.3861 6.29758e-05 12.5057C-0.00473131 11.6084 0.263463 11.1271 1.0618 10.673C7.0694 7.25594 13.0499 3.79087 19.0159 0.301477C19.718 -0.109175 20.2406 -0.0921202 20.9188 0.302722C26.9676 3.82443 33.0311 7.32095 39.0947 10.8173C39.5674 11.0899 39.9363 11.3547 39.9342 11.9991C39.9161 17.6585 39.9238 23.318 39.9238 29.1141C39.5751 28.9763 39.3047 28.9018 39.0662 28.7699C37.6973 28.0129 36.3492 27.2174 34.967 26.4859C34.2037 26.0819 33.8556 25.5956 33.8792 24.6585C33.9548 21.6555 33.8933 18.6494 33.9208 15.6448C33.9266 15.0088 33.741 14.6257 33.1655 14.2971C28.7889 11.798 24.4329 9.26305 19.9649 6.67821C15.375 9.33572 10.7604 12.0076 6.09823 14.707C6.08274 15.0126 6.05477 15.3097 6.0546 15.6069C6.05186 20.3101 6.07676 25.0136 6.0307 29.7163C6.02232 30.5711 6.27742 31.0443 7.02075 31.4661C11.3275 33.91 15.6052 36.4051 19.9593 38.9213C20.7977 38.4359 21.6441 37.9963 22.435 37.4731C23.1678 36.9884 23.7728 36.9233 24.572 37.4388C26.097 38.4226 27.7134 39.2647 29.4728 40.2688C28.928 40.6066 28.5775 40.8356 28.2163 41.0459C25.7746 42.4672 23.3152 43.8591 20.8972 45.3194C20.1998 45.7406 19.6824 45.7057 18.9922 45.3001C14.159 42.4598 9.30029 39.6631 4.36664 36.8049Z" fill="#262626"/>
<path d="M33.1532 36.3864C29.0006 33.9989 24.9475 31.6338 20.8608 29.3282C20.0879 28.8922 19.7084 28.4411 19.765 27.5093C19.8519 26.0784 19.83 24.6364 19.7706 23.2026C19.7363 22.3739 19.9321 21.8451 20.7419 21.4547C21.8281 20.931 22.8319 20.2361 24.046 19.5102C22.6171 18.6704 21.328 17.9128 19.9334 17.0933C18.5496 17.893 17.132 18.7122 15.6349 19.5774C15.6349 23.5581 15.6349 27.5518 15.6349 31.6466C15.291 31.6045 15.0185 31.6438 14.829 31.5365C13.1273 30.5734 11.4434 29.5788 9.74649 28.607C9.31895 28.3622 9.16441 28.0265 9.16625 27.5403C9.17985 23.9279 9.18186 20.3154 9.16832 16.7031C9.16646 16.2076 9.34725 15.8917 9.76797 15.6494C12.9297 13.8283 16.087 11.9996 19.2417 10.1665C19.6977 9.90161 20.1026 9.88709 20.5796 10.165C23.7326 12.0022 26.8962 13.8214 30.0652 15.6309C30.5086 15.8841 30.6229 16.2224 30.6171 16.7025C30.596 18.4432 30.5812 20.1849 30.6222 21.9248C30.6371 22.5569 30.3515 22.8386 29.842 23.1174C28.5991 23.7972 27.3932 24.5445 25.945 25.3988C30.6963 28.1529 35.246 30.7902 40.0001 33.5459C39.072 34.0961 38.3783 34.5119 37.6802 34.92C36.7799 35.4464 35.8327 35.9059 34.9875 36.5088C34.3207 36.9845 33.8031 36.8934 33.1532 36.3864Z" fill="#262626"/>
</svg>

<svg width="40" height="46" fill="none" xmlns="http://www.w3.org/2000/svg"><path d="M4.367 36.805.02 34.286v-1.139c0-6.88.017-13.76-.02-20.641-.005-.898.263-1.379 1.062-1.833A1717.445 1717.445 0 0 0 19.016.301c.702-.41 1.225-.393 1.903.002a5005.773 5005.773 0 0 0 18.176 10.514c.472.273.841.538.84 1.182-.019 5.66-.011 11.319-.011 17.115-.349-.138-.62-.212-.858-.344-1.369-.757-2.717-1.553-4.099-2.284-.763-.404-1.111-.89-1.088-1.828.076-3.003.014-6.009.042-9.013.006-.636-.18-1.02-.755-1.348-4.377-2.499-8.733-5.034-13.201-7.619L6.098 14.707c-.015.306-.043.603-.043.9-.003 4.703.022 9.407-.024 14.11-.009.854.246 1.327.99 1.75 4.307 2.443 8.584 4.938 12.938 7.454.839-.485 1.685-.925 2.476-1.448.733-.485 1.338-.55 2.137-.034 1.525.984 3.141 1.826 4.9 2.83-.544.338-.895.567-1.256.777-2.441 1.421-4.9 2.813-7.319 4.273-.697.422-1.215.387-1.905-.019-4.833-2.84-9.692-5.637-14.625-8.495Z" fill="#262626"/><path d="M33.153 36.386c-4.152-2.387-8.205-4.752-12.292-7.058-.773-.436-1.153-.887-1.096-1.819.087-1.43.065-2.873.006-4.306-.035-.83.161-1.358.97-1.748 1.087-.524 2.09-1.219 3.305-1.945l-4.113-2.417c-1.383.8-2.801 1.62-4.298 2.484v12.07c-.344-.042-.617-.003-.806-.11-1.702-.964-3.386-1.958-5.083-2.93-.427-.245-.582-.58-.58-1.067.014-3.612.016-7.225.002-10.837-.002-.495.18-.811.6-1.054 3.162-1.82 6.319-3.65 9.474-5.482.456-.265.86-.28 1.338-.002 3.153 1.837 6.316 3.656 9.485 5.466.444.253.558.591.552 1.072a146.4 146.4 0 0 0 .005 5.222c.015.632-.27.914-.78 1.192-1.243.68-2.449 1.427-3.897 2.282L40 33.546c-.928.55-1.622.966-2.32 1.374-.9.526-1.847.986-2.693 1.589-.666.475-1.184.384-1.834-.123Z" fill="#262626"/></svg>
